dist/img/sprites/reward.svg

<svg width="25" height="24" viewBox="0 0 25 24" fill="none" xmlns="http://www.w3.org/2000/svg">
<path d="M19.7797 10.0005C19.7797 10.7605 19.1097 11.4005 18.8897 12.0805C18.6697 12.7605 18.8197 13.6905 18.3897 14.2805C17.9597 14.8705 17.0397 15.0005 16.4997 15.4405C15.9597 15.8805 15.4997 16.7005 14.7997 16.9305C14.0997 17.1605 13.3097 16.7205 12.5497 16.7205C11.7897 16.7205 10.9797 17.1505 10.2997 16.9305C9.61973 16.7105 9.18973 15.8605 8.59973 15.4405C8.00973 15.0205 7.08973 14.8705 6.65973 14.2805C6.22973 13.6905 6.38973 12.7805 6.15973 12.0805C5.92973 11.3805 5.21973 10.7605 5.21973 10.0005C5.21973 9.24046 5.88973 8.60046 6.10973 7.92046C6.32973 7.24046 6.17973 6.31046 6.60973 5.72046C7.03973 5.13046 7.95973 5.00046 8.54973 4.56046C9.13973 4.12046 9.49973 3.30046 10.2497 3.07046C10.9997 2.84046 11.7397 3.28046 12.4997 3.28046C13.2597 3.28046 14.0697 2.85046 14.7497 3.07046C15.4297 3.29046 15.8597 4.14046 16.4997 4.56046C17.1397 4.98046 18.0097 5.13046 18.4397 5.72046C18.8697 6.31046 18.7097 7.22046 18.9397 7.92046C19.1697 8.62046 19.7797 9.24046 19.7797 10.0005ZM12.4997 7.00046C11.9064 7.00046 11.3264 7.1764 10.833 7.50605C10.3397 7.83569 9.95515 8.30423 9.72809 8.85241C9.50103 9.40058 9.44162 10.0038 9.55737 10.5857C9.67313 11.1677 9.95885 11.7022 10.3784 12.1218C10.798 12.5413 11.3325 12.8271 11.9145 12.9428C12.4964 13.0586 13.0996 12.9992 13.6478 12.7721C14.196 12.545 14.6645 12.1605 14.9941 11.6672C15.3238 11.1738 15.4997 10.5938 15.4997 10.0005C15.4997 9.20481 15.1837 8.44174 14.621 7.87914C14.0584 7.31653 13.2954 7.00046 12.4997 7.00046Z" stroke="#8C8C8C" stroke-width="2" stroke-linecap="round" stroke-linejoin="round"/>
<path d="M14.5498 17.1002L16.4998 21.0002L18.4798 18.9702L21.4998 19.0002L18.6898 13.4202V13.4102" stroke="#8C8C8C" stroke-width="2" stroke-linecap="round" stroke-linejoin="round"/>
<path d="M10.45 17.1002L8.5 21.0002L6.52 18.9702L3.5 19.0002L6.31 13.4202V13.4102" stroke="#8C8C8C" stroke-width="2" stroke-linecap="round" stroke-linejoin="round"/>
</svg>

<svg width="25" height="24" viewBox="0 0 25 24" fill="none" xmlns="http://www.w3.org/2000/svg"><path d="M19.78 10c0 .76-.67 1.4-.89 2.08-.22.68-.07 1.61-.5 2.2-.43.59-1.35.72-1.89 1.16-.54.44-1 1.26-1.7 1.49-.7.23-1.49-.21-2.25-.21s-1.57.43-2.25.21c-.68-.22-1.11-1.07-1.7-1.49-.59-.42-1.51-.57-1.94-1.16-.43-.59-.27-1.5-.5-2.2-.23-.7-.94-1.32-.94-2.08s.67-1.4.89-2.08c.22-.68.07-1.61.5-2.2.43-.59 1.35-.72 1.94-1.16.59-.44.95-1.26 1.7-1.49.75-.23 1.49.21 2.25.21s1.57-.43 2.25-.21c.68.22 1.11 1.07 1.75 1.49.64.42 1.51.57 1.94 1.16.43.59.27 1.5.5 2.2.23.7.84 1.32.84 2.08zM12.5 7a3 3 0 100 6 3 3 0 000-6z" stroke="#8C8C8C" stroke-width="2" stroke-linecap="round" stroke-linejoin="round"/><path d="M14.55 17.1L16.5 21l1.98-2.03 3.02.03-2.81-5.58v-.01m-8.24 3.69L8.5 21l-1.98-2.03L3.5 19l2.81-5.58v-.01" stroke="#8C8C8C" stroke-width="2" stroke-linecap="round" stroke-linejoin="round"/></svg>
